Mono Glyph Icons/misc/misc-unfilled/mouse.svg

<svg height="48" viewBox="0 -960 960 960" width="48" xmlns="http://www.w3.org/2000/svg"><path d="m479.84-55q-128.84 0-216.84-87.96-88-87.95-88-217.04v-260q0-128.77 87.94-217.39 87.94-88.61 216.78-88.61t217.56 88.61q88.72 88.62 88.72 217.39v260q0 129.09-88.66 217.04-88.66 87.96-217.5 87.96zm30.16-565h181q0-76.19-50-136.59-50-60.41-131-72.41zm-241 0h181v-209q-81 12-131 72.41-50 60.4-50 136.59zm210.6 471q87.4 0 149.4-61.72t62-149.28v-200h-422v200q0 87.3 61.6 149.15 61.6 61.85 149 61.85z"/></svg>

<svg xmlns="http://www.w3.org/2000/svg" height="48" viewBox="0 -960 960 960" width="48"><path d="M479.84-55Q351-55 263-142.96 175-230.91 175-360v-260q0-128.77 87.94-217.39Q350.88-926 479.72-926t217.56 88.61Q786-748.77 786-620v260q0 129.09-88.66 217.04Q608.68-55 479.84-55ZM510-620h181q0-76.19-50-136.59Q591-817 510-829v209Zm-241 0h181v-209q-81 12-131 72.41-50 60.4-50 136.59Zm210.6 471q87.4 0 149.4-61.72T691-360v-200H269v200q0 87.3 61.6 149.15Q392.2-149 479.6-149Zm.4-411Zm30-60Zm-60 0Zm30 60Z"/></svg>
